!!!SOCIAL_FUNCTION:	songs of the drum-presentation ceremony
!!!PDT:	1913
!!!OTL: No_67_Divorce_Song.krn
!!!REG: Great_Lakes
!!!LANG: Non-Tone
!!!LING_GROUP: Algonquin
**kern	**kern
*staff2	*staff1
*clefF4	*clefG2
*k[b-e-a-]	*k[b-e-a-]
*M2/4	*M2/4
4r	8f/L
.	8f/J
=1	=1
8GG/L	(4g/
8GG/J	.
8GG/L	12g/L)
.	12f/
8GG/J	.
.	12e-/J
=2	=2
8GG/L	4.e-/
8GG/J	.
8GG/L	.
8GG/J	8e-/
=3||	=3||
*M3/4	*M3/4
2.r	4e-/
.	4B-/
.	4f/
=4||	=4||
*M2/4	*M2/4
2r	(4g/
.	12g/L)
.	12f/
.	12e-/J
=5	=5
2r	4.e-/
.	8e-/
=6	=6
2r	2e-/
=7	=7
2r	4e-/
.	4e-/
=8||	=8||
*M3/4	*M3/4
2.r	8e-/L
.	[8B-/J
.	8.B-/L]
.	16e-/Jk
.	8.B-/L
.	16B-/Jk
=9||	=9||
*M2/4	*M2/4
2r	2A-/
=10	=10
2r	8B-/L
.	8B-/J
.	4A-/
*	*clefF4
=11	=11
*k[b-e-a-d-g-c-]	*k[b-e-a-d-g-c-]
2r	4A-\
.	12A-\L
.	12G-\
.	12E-\J
=12	=12
2r	4.E-\
.	8E-\
=13	=13
2r	2E-\
=14||	=14||
*M3/4	*M3/4
2.r	4G-\
.	4G-\
.	8A-\L
.	8G-\J
=15||	=15||
*M2/4	*M2/4
2r	4.E-\
.	8E-\
=16	=16
2r	[2E-\
=17	=17
2r	2E-\]
*	*clefG2
=18	=18
2r	4e-/
.	4e-/
=19	=19
2r	4e-/
.	8.e-/L
.	32gn/LL
.	32f/JJJ
=20	=20
2r	4e-/
.	16e-/LK
.	[8.B-/J
=21	=21
2r	8.B-/L]
.	16e-/Jk
.	8.B-/L
.	16B-/Jk
=22	=22
2r	2A-/
*	*clefF4
=23	=23
2r	8B-\L
.	8B-\J
.	4A-\
=24	=24
2r	4A-\
.	12A-\L
.	12G-\
.	12E-\J
=25	=25
2r	4.E-\
.	8E-\
=26	=26
2r	2E-\
=27||	=27||
*M3/4	*M3/4
2.r	4G-\
.	4G-\
.	8A-\L
.	8G-\J
=28||	=28||
*M2/4	*M2/4
2r	4.E-\
.	8E-\
=29	=29
2r	[2E-\
=30	=30
2r	4E-\]
.	4r
==	==
*-	*-
